Papirus/48x48/apps/timestripe.svg

<svg width="48" height="48" version="1" xmlns="http://www.w3.org/2000/svg">
 <path style="opacity:0.2" d="m4 32v1c0 6.647993 5.3520066 12 12 12h16c6.647993 0 12-5.352007 12-12v-1c0 6.647993-5.352007 12-12 12h-16c-6.6479934 0-12-5.352007-12-12z"/>
 <rect style="fill:#4f4f4f" x="4" y="4" width="40" height="40" rx="12"/>
 <path style="fill:#ffffff;opacity:0.1" d="m16 4c-6.6479934 0-12 5.3520066-12 12v1c0-6.647993 5.3520066-12 12-12h16c6.647993 0 12 5.352007 12 12v-1c0-6.6479934-5.352007-12-12-12h-16z"/>
 <path style="opacity:0.2" d="m22 12.565-10 3.335v18.89l10 3.335zm5 2.235-3.5 1.17v18.75l3.5 1.17zm5 2.03-3.5 1.4v14.22l3.5 1.4zm4 3.446-2.5 0.624v8.89l2.5 0.625z"/>
 <path style="fill:#ffffff" d="m22 11.565-10 3.335v18.89l10 3.335zm5 2.235-3.5 1.17v18.75l3.5 1.17zm5 2.03-3.5 1.4v14.22l3.5 1.4zm4 3.446-2.5 0.624v8.89l2.5 0.625z"/>
</svg>

<svg xmlns="http://www.w3.org/2000/svg" width="48" height="48" version="1">
 <rect style="opacity:0.2" width="40" height="40" x="4" y="5" rx="12" ry="12"/>
 <rect style="fill:#4f4f4f" width="40" height="40" x="4" y="4" rx="12" ry="12"/>
 <path style="fill:#ffffff;opacity:0.1" d="m16 4c-6.65 0-12 5.35-12 12v1c0-6.65 5.35-12 12-12h16c6.65 0 12 5.35 12 12v-1c0-6.65-5.35-12-12-12h-16z"/>
 <path style="opacity:0.1" d="M 22,12.565 12,15.9 V 34.79 L 22,38.125 Z M 27,14.801 24,15.803 V 34.889 L 27,35.891 Z M 32,16.83 29,18.031 V 32.648 L 32,33.85 Z M 36,20.275 34,20.775 V 29.914 L 36,30.414 Z"/>
 <path style="fill:#eaeaea" d="M 22,11.565 12,14.9 V 33.79 L 22,37.125 Z M 27,13.801 24,14.803 V 33.889 L 27,34.891 Z M 32,15.83 29,17.031 V 31.648 L 32,32.85 Z M 36,19.275 34,19.775 V 28.914 L 36,29.414 Z"/>
</svg>
